X:1
T:title
T:Invention No. 4 in D minor
T:thezukinimethod.wordpress.com
T:J.S. Bach
C:composer
Z:lyricist
%%score { 1 | 2 }
L:1/8
Q:1/4=80
M:3/8
K:F
V:1 treble nm="Piano"
V:2 bass 
V:1
"Dm" D/E/F/G/A/B/ |"A7" ^C/B/A/G/F/E/ |"Dm" FAd |"A7" G^ce |"Dm" d/e/f/g/a/b/ |"A7" ^c/b/a/g/f/e/ | %6
"Dm" f/d/e/f/g/a/ |"Gm7" B/a/g/f/e/d/ |"C7/E" e/c/d/e/f/g/ |"F" A/g/f/e/d/c/ |"Bb" d/e/f/d/e/f/ | %11
"C7/E" G z z |"Am" c/d/e/c/d/e/ |"Dm" F z B- |"C7/E" BAG |"F/A" c/B/A/G/"C"F/E/ |"F" F/G<"C7"TGF/ | %17
"F" Fcc |"C7/E" !trill(!Tc3- |"F/A" c3- |"G7" c3- |"Am" c/B/A/G/F/E/ |"D7" c/D/E/^F/G/A/ | %23
"Gm" B/A/G/F/E/D/ |"C7/E" B/C/D/E/F/G/ |"F" A/=B/c/d/e/f/ |"E7" ^G/f/e/d/c/=B/ | %27
"Am" c/=B/d/c/B/A/ |"E7" ^G/A/G/^F/E/D/ |"Am/E" C/D/E/^F/^G/A/ |"D" D/c/=B/A/^G/^F/ | %31
"E7" E/^F/^G/A/=B/c/ |"F#dim/E" ^F/e/d/c/=B/A/ |"E7" ^G/A/=B/c/d/e/ |"C__" A/f/e/d/c/=B/ | %35
"C__" a/^g/^f/e/a- | a/d<=BA/ |"Am" A>AB/c/ |"D7" D^FA |"Gm" B/G/A/B/c/d/ |"C7" E/d/c/B/A/G/ | %41
"F" Af/e/f |"A7" Ge z |"Dm/F" d/e/f/g/a/b/ |"A7/E" ^c/b/a/g/f/e/ |"Gm" fdG- |"A7" G/d/^c/e/A/c/ | %47
 d2 d- | dB/A/G/F/ |"Gdim" B/^C/D/E/F/G/ |"Dm" A/d/"A7"FE/D/ | D3 |] %52
V:2
 z3 | z3 | D,/E,/F,/G,/A,/B,/ | ^C,/B,/A,/G,/F,/E,/ | F,A,D | E,G,^C | D,DF, | G,A,B, | C,CE, | %9
 F,G,A, | B,/G,/A,/B,/C/D/ | E,/D/C/B,/A,/G,/ | A,/F,/G,/A,/B,/C/ | D,/C/B,/A,/G,/F,/ | %14
 E,/C,/D,/E,/F,/G,/ | A,,/G,/F,/E,/D,/C,/ | D,/B,,/C,C,, | F,,/G,,/A,,/B,,/C,/D,/ | %18
 E,,/D,/C,/B,,/A,,/G,,/ | A,,/B,,/C,/D,/E,/F,/ | G,,/F,/E,/D,/C,/B,,/ | A,,/B,,/C,/A,,/B,,/C,/ | %22
 ^F,, z z | G,,/A,,/B,,/G,,/A,,/B,,/ | E,, z z | F,,F,D, | =B,,^G,,E,, | %27
 A,,/_A,,/=A,,/=B,,/C,/D,/ | !trill(!TE,3- | E,3- | E,3- | E,3- | E,3- | E,ED | C=B,A, | DEF | %36
 DEE, | A,/A,,/B,,/C,/D,/_E,/ | ^F,,/_E,/D,/C,/B,,/A,,/ | G,,>G,,A,,/B,,/ | C,,G,,C, | %41
 F,/G,/A,/=B,/^C/D/ | E,/D/^C/=B,/A,/G,/ | F,A,D | E,G,^C | D,/E,/F,/G,/A,/B,/ | %46
 ^C,/B,/A,/G,/F,/E,/ | F,/G,/A,A,, | B,,>C,B,,/A,,/ | G,,/B,/A,/G,/F,/E,/ | F,/G,/A,A,, | D,,3 |] %52

